X:1
T:Hvad blev der liten
T:Hvad blev der liten
T:Norsk folketone
T:Lars Søraas
T:H. A. Brorson
C:Lars Søraas
Z:H. A. Brorson
%%score [ 1 2 3 4 ]
L:1/8
Q:1/4=72
M:6/8
K:Ab
V:1 treble nm="Soprano"
V:2 treble nm="Alto"
V:3 treble-8 nm="Tenor"
V:4 bass nm="Bass"
V:1
"^Andante"!p! (E/G/) | B2 B G2 E |!<(! A2 A (AB)!<)! c | F2 B (AF) E | A2 B !breath!c2!mf! (A/c/) | %5
w: 1.Hvad _|blev der li- ten|tap paa ti- * den,|tænk- te vi _ paa|dö- dens skaal og _|
w: 2.Ja _|ja, det he- ter:|vaa- ker be- * der,|væ- rer re- * de|dag og nat! Fuld- *|
w: 3.Nei, _|di- ne man- ge|el- skovs gan- * ge,|al den vei _ du|kom og for, nei, _|
 e2 e c2!<(! A | (Bc)!<)! d!>(! B2 G!>)! | (FA) B!<(! (EA) G | A3-!<)! A z!p! (E/G/) | B2 B G2 E | %10
w: lot vaar tan- ke|al- * drig van- ke|fra _ vort ret- * te|maal. * I _|hö- stens da- ge|
w: fö- rer stri- den,|kjö- * per ti- den!|Har _ I kro- * nen|fat? _ O _|gjör vi dis- se|
w: al- drig bru- den|dem _ for- u- ten|sæt- * ter fot _ til|jord. _ Den _|rö- de ha- ne,|
!<(! A2 A!<)! (AB) c | F2 B (AF) E | A2 B !breath!c2!f! (A/c/) | e2 e!>(! c2 A!>)! | %14
w: faa skal kla- * ge|o- ver trang _ paa|tids- for- driv. O _|nei! end si- ge|
w: trin dog vis- * se|som vi end _ til-|ba- ke har? Hvor _|lig- ger man- gen|
w: hvi- te fa- * ne,|kon- ge- vei _ i|him- mel- sky, hun _|al- tid nöi- e|
!<(! (Bc) d!<)! B2 G | (FA) B (EA) G | A3- A z!p! (A/B/) | c2!<(! c (cd)!<)! c | %18
w: de _ som hi- ger|til _ et e- * vig|liv. _ Mit _|hjer- te, spar _ den|
w: e- * vig fan- gen|som _ paa vei- * en|var! _ O _|ve, saa- fremt _ det|
w: har _ for öi- e|hjem _ til Sa- * lems|by. _ Vis _|os for- klart _ din|
!>(! (BA) G!>)! !breath!A2 (A/B/) |!<(! c2 c (c!<)! d) c | %20
w: tid _ du har som _|er saa ko- * ste-|
w: bli- * ver glemt, hvor _|du min Je- * sus|
w: föd- * sels art, din _|död, op- stan- del- se,|
"^rit."!>(! (BA) B !breath!c2!>)!!mf!"^a tempo" (A/G/) | F2 B (AF) E |!<(! A2 A (Bc)!<)! d | %23
w: lig _ og rar! Har _|du i sin- * de|hjem at fin- * de,|
w: var _ be- klemt i _|hel- veds he- * te|for vor le- * de|
w: him- * mel- fart, vor _|glæ- de- li- * ge|him- mel- sti- * ge,|
!f! (cA) B (EA) G | A3- A z |] %25
w: maa _ du væ- * re|snar. _|
w: syn- * dens lek _ og|skjemt. _|
w: drag _ os, hent _ os|snart! _|
V:2
!p! E | E2 E E2 E |!<(! E2 E E2!<)! E | D2 D C2 B, | C2 E !breath!E2!mf! E | E2 E E2!<(! E | %6
w: 1.Hvad|blev der li- ten|tap paa ti- den,|tænk- te vi paa|dö- dens skaal og|lot vaar tan- ke|
w: 2.Ja|ja, det he- ter:|vaa- ker be- der,|væ- rer re- de|dag og nat! Fuld-|fö- rer stri- den,|
w: 3.Nei,|di- ne man- ge|el- skovs gan- ge,|al den vei du|kom og for, nei,|al- drig bru- den|
 F2!<)! F!>(! E2 E!>)! | C2 F!<(! E2 E | E3-!<)! E z!p! E | E2 =D E2 E |!<(! E2 E!<)! (C_D) E | %11
w: al- drig van- ke|fra vort ret- te|maal. * I|hö- stens da- ge|faa skal kla- * ge|
w: kjö- per ti- den!|Har I kro- nen|fat? _ O|gjör vi dis- se|trin dog vis- * se|
w: dem for- u- ten|sæt- ter fot til|jord. _ Den|rö- de ha- ne,|hvi- te fa- * ne,|
 F2 F D2 D | C2 F !breath!=E2!f! F | _E2 E!>(! G2 F!>)! |!<(! F2 F!<)! FE D | (DC) F E2 E | %16
w: o- ver trang paa|tids- for- driv. O|nei! end si- ge|de som hi- * ger|til _ et e- vig|
w: som vi end til-|ba- ke har? Hvor|lig- ger man- gen|e- vig fan- * gen|som _ paa vei- en|
w: kon- ge- vei i|him- mel- sky, hun|al- tid nöi- e|har for öi- * e|hjem _ til Sa- lems|
 E3- E z!p! F | G2!<(! G F2!<)! F |!>(! F2 E!>)! !breath!E2 E |!<(! E2 E (=E!<)! E) F | %20
w: liv. _ Mit|hjer- te, spar den|tid du har som|er saa ko- * ste-|
w: var! _ O|ve, saa- fremt det|bli- ver glemt, hvor|du min Je- * sus|
w: by. _ Vis|os for- klart din|föd- sels art, din|död, op- stan- del- se,|
"^rit."!>(! F2 F !breath!=E2!>)!!mf!"^a tempo" E | F2 F _ED D |!<(! C2 C F2!<)! F |!f! E2 F E2 D | %24
w: lig og rar! Har|du i sin- * de|hjem at fin- de,|maa du væ- re|
w: var be- klemt i|hel- veds he- * te|for vor le- de|syn- dens lek og|
w: him- mel- fart, vor|glæ- de- li- * ge|him- mel- sti- ge,|drag os, hent os|
 C3- C z |] %25
w: snar. _|
w: skjemt. _|
w: snart! _|
V:3
!p! G | G2 G B2 G |!<(! A2 A d2!<)! c | A2 F A2 B | A2 G !breath!A2!mf! c | B2 B A2!<(! A | %6
w: 1.Hvad|blev der li- ten|tap paa ti- den,|tænk- te vi paa|dö- dens skaal og|lot vaar tan- ke|
w: 2.Ja|ja, det he- ter:|vaa- ker be- der,|væ- rer re- de|dag og nat! Fuld-|fö- rer stri- den,|
w: 3.Nei,|di- ne man- ge|el- skovs gan- ge,|al den vei du|kom og for, nei,|al- drig bru- den|
 A2!<)! A!>(! G2 G!>)! | A2 d!<(! c2 B | c3-!<)! c z!p! B | A2 A B2 B |!<(! cB A!<)! A2 A | %11
w: al- drig van- ke|fra vort ret- te|maal. * I|hö- stens da- ge|faa _ skal kla- ge|
w: kjö- per ti- den!|Har I kro- nen|fat? _ O|gjör vi dis- se|trin _ dog vis- se|
w: dem for- u- ten|sæt- ter fot til|jord. _ Den|rö- de ha- ne,|hvi- * te fa- ne,|
 A2 F (BA) G | A2 F !breath!G2!f! A | A2 A!>(! G2 c!>)! |!<(! d2 B!<)! G2 B | A2 A A2 d | %16
w: o- ver trang _ paa|tids- for- driv. O|nei! end si- ge|de som hi- ger|til et e- vig|
w: som vi end _ til-|ba- ke har? Hvor|lig- ger man- gen|e- vig fan- gen|som paa vei- en|
w: kon- ge- vei _ i|him- mel- sky, hun|al- tid nöi- e|har for öi- e|hjem til Sa- lems|
 c3- c z!p! c | c2!<(! B A2!<)! A |!>(! A2 B!>)! !breath!A2 d |!<(! c2 c (B!<)! B) A | %20
w: liv. _ Mit|hjer- te, spar den|tid du har som|er saa ko- * ste-|
w: var! _ O|ve, saa- fremt det|bli- ver glemt, hvor|du min Je- * sus|
w: by. _ Vis|os for- klart din|föd- sels art, din|död, op- stan- del- se,|
"^rit."!>(! A2 F !breath!G2!>)!!mf!"^a tempo" (c/B/) | A2 B BA G |!<(! A2 A A2!<)! A | %23
w: lig og rar! Har _|du i sin- * de|hjem at fin- de,|
w: var be- klemt i _|hel- veds he- * te|for vor le- de|
w: him- mel- fart, vor _|glæ- de- li- * ge|him- mel- sti- ge,|
!f! (Ac) d c2 B | A3- A z |] %25
w: maa _ du væ- re|snar. _|
w: syn- * dens lek og|skjemt. _|
w: drag _ os, hent os|snart! _|
V:4
!p! E, | E,2 E, D,2 D, |!<(! C,2 C, B,,2!<)! A,, | D,2 D, F,2 G, | F,2 E, !breath!A,2!mf! A, | %5
w: 1.Hvad|blev der li- ten|tap paa ti- den,|tænk- te vi paa|dö- dens skaal og|
w: 2.Ja|ja, det he- ter:|vaa- ker be- der,|væ- rer re- de|dag og nat! Fuld-|
w: 3.Nei,|di- ne man- ge|el- skovs gan- ge,|al den vei du|kom og for, nei,|
 G,2 G, A,2!<(! C, | D,2!<)! B,,!>(! E,2 E,!>)! | F,2 D,!<(! E,2 E, | A,3-!<)! A, z!p! G, | %9
w: lot vaar tan- ke|al- drig van- ke|fra vort ret- te|maal. * I|
w: fö- rer stri- den,|kjö- per ti- den!|Har I kro- nen|fat? _ O|
w: al- drig bru- den|dem for- u- ten|sæt- ter fot til|jord. _ Den|
 F,2 F, E,2 _D, |!<(! C,2 C,!<)! F,2 E, | D,2 D, B,,2 E, | F,2 D, !breath!C,2!f! F, | %13
w: hö- stens da- ge|faa skal kla- ge|o- ver trang paa|tids- for- driv. O|
w: gjör vi dis- se|trin dog vis- se|som vi end til-|ba- ke har? Hvor|
w: rö- de ha- ne,|hvi- te fa- ne,|kon- ge- vei i|him- mel- sky, hun|
 C,2 C,!>(! E,2 F,!>)! |!<(! D,2 D,!<)! E,2 E, | F,2 D, C,2 B,, | A,,3- A,, z!p! F, | %17
w: nei! end si- ge|de som hi- ger|til et e- vig|liv. _ Mit|
w: lig- ger man- gen|e- vig fan- gen|som paa vei- en|var! _ O|
w: al- tid nöi- e|har for öi- e|hjem til Sa- lems|by. _ Vis|
 =E,2!<(! E, F,2!<)! _E, |!>(! D,2 D,!>)! !breath!C,2 B,, |!<(! A,,2 A,, (C,!<)! C,) C, | %20
w: hjer- te, spar den|tid du har som|er saa ko- * ste-|
w: ve, saa- fremt det|bli- ver glemt, hvor|du min Je- * sus|
w: os for- klart din|föd- sels art, din|död, op- stan- del- se,|
"^rit."!>(! D,2 D, !breath!C,2!>)!!mf!"^a tempo" C, | D,2 D, E,2 E, |!<(! F,2 E, (D,C,)!<)! B,, | %23
w: lig og rar! Har|du i sin- de|hjem at fin- * de,|
w: var be- klemt i|hel- veds he- te|for vor le- * de|
w: him- mel- fart, vor|glæ- de- li- ge|him- mel- sti- * ge,|
!f! E,2 E, E,2 E, | A,,3- A,, z |] %25
w: maa du væ- re|snar. _|
w: syn- dens lek og|skjemt. _|
w: drag os, hent os|snart! _|

